svgs/light/toilet-paper-under-slash.svg

<svg xmlns="http://www.w3.org/2000/svg" viewBox="0 0 640 512"><!--! Font Awesome Pro 6.3.0 by @fontawesome - https://fontawesome.com License - https://fontawesome.com/license (Commercial License) Copyright 2023 Fonticons, Inc. --><path d="M633.9 483.4L25.92 3.436C19-2.033 8.922-.8457 3.438 6.092c-5.469 6.938-4.281 17 2.641 22.47l608 480C617 510.9 620.5 512 623.1 512c4.734 0 9.422-2.094 12.58-6.094C642 498.1 640.8 488.9 633.9 483.4zM176 32h226.1c-30.21 34.39-50.14 93.18-50.14 160c0 2.691 .2328 5.279 .2972 7.943l33.69 26.6C384.7 215.5 384 204 384 192c0-94.29 42.16-160 80-160s80 65.71 80 160c0 56.87-15.44 103-35.92 130.9l25.05 19.78c3.803-5.141 7.482-10.54 10.87-16.46v25.04l32 25.26L576 192c0-106-50.15-192-112-192H176C157.8 0 140.6 7.617 125.4 20.84l25.98 20.51C159.5 35.6 167.8 32 176 32zM208 480c-8.813 0-16-7.188-16-16v-32c0-8.844-7.156-16-16-16c-8.844 0-16 7.156-16 16v32c0 26.47 21.53 48 48 48h320c3.854 0 7.555-.5781 11.15-1.439L500.4 480H208zM378.8 384l-40.53-32H176c-37.84 0-80-65.71-80-160c0-10.41 .6992-20.32 1.664-29.98L68.43 138.9C65.6 155.8 64 173.6 64 192c0 106 50.15 192 112 192H378.8zM463.1 112c-27.38 0-48 34.41-48 80s20.63 80 48 80c27.38 0 48-34.41 48-80S491.4 112 463.1 112zM463.1 240c-9.127 0-15.1-20.64-15.1-48c0-27.36 6.872-48 15.1-48c9.125 0 15.1 20.64 15.1 48C479.1 219.4 473.1 240 463.1 240z"/></svg>

<svg xmlns="http://www.w3.org/2000/svg" viewBox="0 0 640 512"><!-- Font Awesome Pro 6.0.0-alpha2 by @fontawesome - https://fontawesome.com License - https://fontawesome.com/license (Commercial License) --><path d="M633.922 483.438L25.921 3.436C18.999 -2.033 8.921 -0.846 3.437 6.092C-2.032 13.029 -0.845 23.092 6.077 28.561L614.078 508.562C617.016 510.875 620.516 512 623.984 512C628.719 512 633.406 509.906 636.562 505.906C642.031 498.969 640.844 488.906 633.922 483.438ZM175.999 32H402.14C371.933 66.389 352 125.18 352 192C352 194.691 352.23 197.279 352.295 199.943L385.986 226.543C384.713 215.533 384 204.014 384 192C384 97.709 426.162 32 464 32S544 97.709 544 192C544 248.871 528.56 295.006 508.084 322.936L533.133 342.711C536.935 337.57 540.615 332.172 544 326.246V351.289L576 376.553C576 376.553 576 200.918 576 192C576 85.961 525.855 0 464 0H175.999C157.783 0 140.638 7.617 125.435 20.844L151.411 41.352C159.513 35.604 167.833 32 175.999 32ZM207.999 480C199.187 480 191.999 472.812 191.999 464V432C191.999 423.156 184.843 416 175.999 416C167.156 416 159.999 423.156 159.999 432V464C159.999 490.469 181.531 512 207.999 512H528C531.853 512 535.555 511.422 539.148 510.561L500.435 480H207.999ZM378.836 384L338.302 352H175.999C138.161 352 95.999 286.291 95.999 192C95.999 181.592 96.698 171.684 97.663 162.021L68.429 138.941C65.601 155.811 63.999 173.572 63.999 192C63.999 298.039 114.144 384 175.999 384H378.836ZM463.996 112C436.619 112 415.992 146.406 415.992 192S436.619 272 463.996 272C491.371 272 511.998 237.594 511.998 192S491.371 112 463.996 112ZM463.996 240C454.869 240 447.994 219.355 447.994 192C447.994 164.643 454.869 144 463.996 144C473.121 144 479.996 164.643 479.996 192C479.996 219.355 473.121 240 463.996 240Z"/></svg>
